static/assets/images/icons/medium.svg

<svg width="256" height="256" viewBox="0 0 256 256" fill="none" xmlns="http://www.w3.org/2000/svg">
<path d="M80.6367 71C47.1481 71 20 98.3356 20 132.053C20 165.77 47.1501 193.105 80.6367 193.105C114.123 193.105 141.273 165.772 141.273 132.053C141.273 98.3336 114.127 71 80.6367 71ZM177.471 74.5764C160.726 74.5764 147.154 100.316 147.154 132.054C147.154 163.792 160.728 189.533 177.473 189.533C194.218 189.533 207.791 163.793 207.791 132.054H207.789C207.789 100.307 194.217 74.5764 177.471 74.5764H177.471ZM224.336 80.5631C218.448 80.5631 213.675 103.618 213.675 132.054C213.675 160.489 218.445 183.544 224.336 183.544C230.227 183.544 235 160.483 235 132.053C235 103.616 230.225 80.5631 224.337 80.5631H224.336Z" fill="black"/>
</svg>

<svg xmlns="http://www.w3.org/2000/svg" fill="none" viewBox="0 0 256 256"><path fill="#000" d="M80.637 71C47.148 71 20 98.336 20 132.053s27.15 61.052 60.637 61.052c33.486 0 60.636-27.333 60.636-61.052S114.127 71 80.637 71m96.834 3.576c-16.745 0-30.317 25.74-30.317 57.478s13.574 57.479 30.319 57.479 30.318-25.74 30.318-57.479h-.002c0-31.747-13.572-57.478-30.318-57.478m46.865 5.987c-5.888 0-10.661 23.055-10.661 51.491 0 28.435 4.77 51.49 10.661 51.49S235 160.483 235 132.053c0-28.437-4.775-51.49-10.663-51.49z"/></svg>
